X: 66
T:An der Berollo. TBe.066
M:C|
L:1/4
Q:100
S:Thomas Bennet MS,1718, VWML
R:air
O:England
H:171
Z:C. Graeb
K:G major
B | GEEe | ^d>e fg | Be^d e/f/ | e3 d/c/ | B/A/ G/A/ B/A/B/c/ | \
d3 c/B/  |!
A/G/F/G/ A/G/ A/B/ | c3 B | A/G/F/G/ A/G/F/E/ | B3 e/f/ | \
g ^cc d/e/ | f2 FB | ^AB d/^c/B/^A/ | B3 || f | f>g f/e/d/e/ | \
^d2 e | fB (B/A/)(G/F/) | G3 A | \
B>c Bc | d>ede | Ag b/a/g/f/ | g3 B | B e (e/d/)(c/B/) |\ 
c3 ^c | cf f/e/d/^c/ | ^d2 z b | beea | a^dzg | g^ccd | fBze |\ 
de g/f/e/^d/ | e2zb | beea | a^dzg | \
g^ccf | fBze | ^d e/f/ (g/f/)(e/^d/) | e3 ||
